img/svg/form-label-icons/building-ico.svg

<svg width="20" height="20" viewBox="0 0 20 20" fill="none" xmlns="http://www.w3.org/2000/svg">
<path d="M20 19.2188C20 19.6503 19.6503 20 19.2188 20H11.5625C11.131 20 10.7812 19.6503 10.7812 19.2188V4.64844H10C9.56848 4.64844 9.21875 4.29871 9.21875 3.86719V3.08594H4.53125V3.86719C4.53125 4.29871 4.18152 4.64844 3.75 4.64844H2.96875V19.2188C2.96875 19.6503 2.61902 20 2.1875 20H0.78125C0.349731 20 0 19.6503 0 19.2188C0 18.7872 0.349731 18.4375 0.78125 18.4375H1.40625V3.86719C1.40625 3.43567 1.75598 3.08594 2.1875 3.08594H2.96875V2.30469C2.96875 1.87317 3.31848 1.52344 3.75 1.52344H6.09375V0.78125C6.09375 0.349731 6.44348 0 6.875 0C7.30652 0 7.65625 0.349731 7.65625 0.78125V1.52344H10C10.4315 1.52344 10.7812 1.87317 10.7812 2.30469V3.08594H11.5625C11.5663 3.08594 11.57 3.0864 11.5738 3.08655C11.725 3.0809 11.8796 3.1192 12.0175 3.20587L16.9746 6.32355C17.9884 6.96121 18.5938 8.05695 18.5938 9.25476V12.1875C18.5938 12.619 18.244 12.9688 17.8125 12.9688C17.381 12.9688 17.0312 12.619 17.0312 12.1875V9.25476C17.0312 8.59741 16.6991 7.99606 16.1427 7.64618L12.3438 5.25696V18.4375H13.8672V17.1875C13.8672 16.756 14.2169 16.4062 14.6484 16.4062C15.08 16.4062 15.4297 16.756 15.4297 17.1875V18.4375H17.0312V16.0547C17.0312 15.6232 17.381 15.2734 17.8125 15.2734C18.244 15.2734 18.5938 15.6232 18.5938 16.0547V18.4375H19.2188C19.6503 18.4375 20 18.7872 20 19.2188ZM5.27344 9.375C4.84192 9.375 4.49219 9.72473 4.49219 10.1562V10.9375C4.49219 11.369 4.84192 11.7188 5.27344 11.7188C5.70496 11.7188 6.05469 11.369 6.05469 10.9375V10.1562C6.05469 9.72473 5.70496 9.375 5.27344 9.375ZM8.39844 9.375C7.96692 9.375 7.61719 9.72473 7.61719 10.1562V10.9375C7.61719 11.369 7.96692 11.7188 8.39844 11.7188C8.82996 11.7188 9.17969 11.369 9.17969 10.9375V10.1562C9.17969 9.72473 8.82996 9.375 8.39844 9.375ZM5.27344 12.8906C4.84192 12.8906 4.49219 13.2404 4.49219 13.6719V14.4531C4.49219 14.8846 4.84192 15.2344 5.27344 15.2344C5.70496 15.2344 6.05469 14.8846 6.05469 14.4531V13.6719C6.05469 13.2404 5.70496 12.8906 5.27344 12.8906ZM8.39844 12.8906C7.96692 12.8906 7.61719 13.2404 7.61719 13.6719V14.4531C7.61719 14.8846 7.96692 15.2344 8.39844 15.2344C8.82996 15.2344 9.17969 14.8846 9.17969 14.4531V13.6719C9.17969 13.2404 8.82996 12.8906 8.39844 12.8906ZM8.39844 16.4062C7.96692 16.4062 7.61719 16.756 7.61719 17.1875V17.9688C7.61719 18.4003 7.96692 18.75 8.39844 18.75C8.82996 18.75 9.17969 18.4003 9.17969 17.9688V17.1875C9.17969 16.756 8.82996 16.4062 8.39844 16.4062ZM15.4297 10.1562C15.4297 9.72473 15.08 9.375 14.6484 9.375C14.2169 9.375 13.8672 9.72473 13.8672 10.1562V10.9375C13.8672 11.369 14.2169 11.7188 14.6484 11.7188C15.08 11.7188 15.4297 11.369 15.4297 10.9375V10.1562ZM14.6484 12.8906C14.2169 12.8906 13.8672 13.2404 13.8672 13.6719V14.4531C13.8672 14.8846 14.2169 15.2344 14.6484 15.2344C15.08 15.2344 15.4297 14.8846 15.4297 14.4531V13.6719C15.4297 13.2404 15.08 12.8906 14.6484 12.8906ZM5.27344 16.4062C4.84192 16.4062 4.49219 16.756 4.49219 17.1875V17.9688C4.49219 18.4003 4.84192 18.75 5.27344 18.75C5.70496 18.75 6.05469 18.4003 6.05469 17.9688V17.1875C6.05469 16.756 5.70496 16.4062 5.27344 16.4062ZM5.27344 5.85938C4.84192 5.85938 4.49219 6.20911 4.49219 6.64062V7.42188C4.49219 7.85339 4.84192 8.20312 5.27344 8.20312C5.70496 8.20312 6.05469 7.85339 6.05469 7.42188V6.64062C6.05469 6.20911 5.70496 5.85938 5.27344 5.85938ZM8.39844 5.85938C7.96692 5.85938 7.61719 6.20911 7.61719 6.64062V7.42188C7.61719 7.85339 7.96692 8.20312 8.39844 8.20312C8.82996 8.20312 9.17969 7.85339 9.17969 7.42188V6.64062C9.17969 6.20911 8.82996 5.85938 8.39844 5.85938Z" fill="#4C51CC"/>
</svg>

<svg width="20" height="20" fill="none" xmlns="http://www.w3.org/2000/svg"><path d="M20 19.219c0 .431-.35.781-.781.781h-7.657a.781.781 0 01-.78-.781V4.649H10a.781.781 0 01-.781-.782v-.781H4.53v.781a.78.78 0 01-.781.781h-.781v14.57c0 .432-.35.782-.781.782H.78a.781.781 0 110-1.563h.625V3.867c0-.431.35-.781.782-.781h.78v-.781c0-.432.35-.782.782-.782h2.344V.781a.781.781 0 111.562 0v.742H10c.431 0 .781.35.781.782v.78h.781l.012.002a.777.777 0 01.444.119l4.957 3.118a3.444 3.444 0 011.619 2.93v2.934a.781.781 0 01-1.563 0V9.255a1.89 1.89 0 00-.888-1.609l-3.8-2.389v13.18h1.524v-1.25a.781.781 0 111.563 0v1.25h1.601v-2.382a.781.781 0 011.563 0v2.383h.625c.431 0 .781.35.781.78zM5.273 9.375a.781.781 0 00-.78.781v.781a.781.781 0 101.562 0v-.78a.781.781 0 00-.782-.782zm3.125 0a.781.781 0 00-.78.781v.781a.781.781 0 101.562 0v-.78a.781.781 0 00-.782-.782zm-3.125 3.516a.781.781 0 00-.78.78v.782a.781.781 0 101.562 0v-.781a.781.781 0 00-.782-.781zm3.125 0a.781.781 0 00-.78.78v.782a.781.781 0 101.562 0v-.781a.781.781 0 00-.782-.781zm0 3.515a.781.781 0 00-.78.782v.78a.781.781 0 101.562 0v-.78a.781.781 0 00-.782-.782zm7.032-6.25a.781.781 0 10-1.563 0v.781a.781.781 0 101.563 0v-.78zm-.782 2.735a.781.781 0 00-.78.78v.782a.781.781 0 101.562 0v-.781a.781.781 0 00-.782-.781zm-9.375 3.515a.781.781 0 00-.78.782v.78a.781.781 0 101.562 0v-.78a.781.781 0 00-.782-.782zm0-10.547a.781.781 0 00-.78.782v.78a.781.781 0 101.562 0v-.78a.781.781 0 00-.782-.782zm3.125 0a.781.781 0 00-.78.782v.78a.781.781 0 101.562 0v-.78a.781.781 0 00-.782-.782z" fill="#4C51CC"/></svg>
